icons/zoom.svg

<?xml version="1.0" encoding="UTF-8" standalone="no"?>
<!-- Created with Inkscape (http://www.inkscape.org/) -->

<svg
   xmlns:dc="http://purl.org/dc/elements/1.1/"
   xmlns:cc="http://creativecommons.org/ns#"
   xmlns:rdf="http://www.w3.org/1999/02/22-rdf-syntax-ns#"
   xmlns:svg="http://www.w3.org/2000/svg"
   xmlns="http://www.w3.org/2000/svg"
   xmlns:xlink="http://www.w3.org/1999/xlink"
   xmlns:sodipodi="http://sodipodi.sourceforge.net/DTD/sodipodi-0.dtd"
   xmlns:inkscape="http://www.inkscape.org/namespaces/inkscape"
   width="32"
   height="32"
   id="svg2"
   version="1.1"
   inkscape:version="0.48.4 r9939"
   sodipodi:docname="zoom.svg">
  <defs
     id="defs4">
    <linearGradient
       id="linearGradient4502">
      <stop
         style="stop-color:#313131;stop-opacity:1;"
         offset="0"
         id="stop4504" />
      <stop
         style="stop-color:#6f6f6f;stop-opacity:1;"
         offset="1"
         id="stop4506" />
    </linearGradient>
    <linearGradient
       inkscape:collect="always"
       xlink:href="#linearGradient4502"
       id="linearGradient4508"
       x1="0.84374978"
       y1="1036.4172"
       x2="31.069015"
       y2="1036.4172"
       gradientUnits="userSpaceOnUse" />
    <linearGradient
       inkscape:collect="always"
       xlink:href="#linearGradient4502"
       id="linearGradient4510"
       gradientUnits="userSpaceOnUse"
       x1="1.8539023"
       y1="1027.9572"
       x2="30.690208"
       y2="1049.8649"
       gradientTransform="translate(0,-1020.3622)" />
  </defs>
  <sodipodi:namedview
     id="base"
     pagecolor="#ffffff"
     bordercolor="#666666"
     borderopacity="1.0"
     inkscape:pageopacity="0.0"
     inkscape:pageshadow="2"
     inkscape:zoom="15.839192"
     inkscape:cx="-0.24232348"
     inkscape:cy="20.693474"
     inkscape:document-units="px"
     inkscape:current-layer="g4496"
     showgrid="false"
     inkscape:window-width="1440"
     inkscape:window-height="861"
     inkscape:window-x="1920"
     inkscape:window-y="18"
     inkscape:window-maximized="0" />
  <metadata
     id="metadata7">
    <rdf:RDF>
      <cc:Work
         rdf:about="">
        <dc:format>image/svg+xml</dc:format>
        <dc:type
           rdf:resource="http://purl.org/dc/dcmitype/StillImage" />
        <dc:title />
      </cc:Work>
    </rdf:RDF>
  </metadata>
  <g
     inkscape:label="Calque 1"
     inkscape:groupmode="layer"
     id="layer1"
     transform="translate(0,-1020.3622)">
    <g
       id="g4496"
       style="stroke:none;fill:url(#linearGradient4508);fill-opacity:1">
      <path
         style="fill:url(#linearGradient4510);fill-opacity:1;stroke:none"
         d="M 12.34375 1.03125 C 5.9975751 1.03125 0.84375 6.1538 0.84375 12.5 C 0.84375 18.8462 5.9975751 24 12.34375 24 C 15.038608 24 17.507244 23.055349 19.46875 21.5 C 19.902773 21.827426 20.658821 22.412223 20.59375 22.65625 C 20.218411 24.06385 20.75 24.65625 20.75 24.65625 C 20.75 24.65625 26.114157 29.8761 26.71875 30.4375 C 27.167606 30.8543 27.762548 31.4835 28.75 30.75 C 28.75 30.75 29.779909 29.99315 30.65625 29.03125 C 31.532593 28.06945 30.75 27.03125 30.75 27.03125 C 30.75 27.03125 25.081972 21.23335 24.3125 20.65625 C 23.543031 20.07915 22.5 20.78125 22.5 20.78125 L 21.375 19.625 C 22.923275 17.665838 23.84375 15.188069 23.84375 12.5 C 23.84375 6.1538 18.689925 1.03125 12.34375 1.03125 z M 12.375 2.875 C 17.663479 2.875 21.9375 7.18025 21.9375 12.46875 C 21.9375 17.75715 17.663479 22.03125 12.375 22.03125 C 7.0865208 22.03125 2.78125 17.75715 2.78125 12.46875 C 2.78125 7.18025 7.0865208 2.875 12.375 2.875 z "
         transform="translate(0,1020.3622)"
         id="path2996" />
    </g>
  </g>
</svg>

<svg xmlns="http://www.w3.org/2000/svg" xmlns:xlink="http://www.w3.org/1999/xlink" width="32" height="32"><defs><linearGradient id="a"><stop offset="0" stop-color="#313131"/><stop offset="1" stop-color="#6f6f6f"/></linearGradient><linearGradient xlink:href="#a" x1=".844" y1="1036.417" x2="31.069" y2="1036.417" gradientUnits="userSpaceOnUse"/><linearGradient xlink:href="#a" id="b" gradientUnits="userSpaceOnUse" x1="1.854" y1="1027.957" x2="30.69" y2="1049.865" gradientTransform="translate(0 -1020.362)"/></defs><path d="M12.344 1.03C5.998 1.03.844 6.155.844 12.5c0 6.346 5.154 11.5 11.5 11.5 2.695 0 5.163-.945 7.125-2.5.433.327 1.19.912 1.124 1.156-.376 1.408.156 2 .156 2s5.364 5.22 5.97 5.782c.448.416 1.043 1.046 2.03.312 0 0 1.03-.757 1.906-1.72.877-.96.094-2 .094-2s-5.668-5.797-6.438-6.374c-.77-.577-1.812.125-1.812.125l-1.125-1.155c1.548-1.96 2.47-4.437 2.47-7.125 0-6.346-5.155-11.47-11.5-11.47zm.03 1.845c5.29 0 9.563 4.305 9.563 9.594 0 5.287-4.274 9.56-9.562 9.56-5.288 0-9.594-4.273-9.594-9.56 0-5.29 4.307-9.595 9.595-9.595z" fill="url(#b)"/></svg>
